packages/foundations/assets/icons/functional/images/environment/cloud_24.svg

<svg width="24" height="24" viewBox="0 0 24 24" fill="none" xmlns="http://www.w3.org/2000/svg">
<g clip-path="url(#clip0_185_789)">
<path fill-rule="evenodd" clip-rule="evenodd" d="M10.5745 6.07579L10.401 6.20259L10.1702 6.14051C9.79034 6.04935 9.39815 6.00259 9 6.00259L8.78311 6.00721C6.26613 6.11464 4.23101 8.08283 4.01835 10.5712L4.006 10.7566L3.85321 10.8626C2.70991 11.6942 2 13.0343 2 14.5026C2 16.8961 3.87335 18.8672 6.25397 18.996L17.2242 18.9974C19.9045 18.866 22 16.6712 22 14.0026L21.9945 13.7666C21.9248 12.2786 21.1996 10.9243 20.0483 10.0394L19.904 9.93359L19.8699 9.75435C19.2929 7.02385 16.8684 5.00259 14 5.00259C12.8591 5.05645 11.4902 5.4378 10.5745 6.07579ZM14 7.00259C16.067 7.00259 17.7889 8.57792 17.982 10.6201C18.0127 10.9447 18.1997 11.234 18.4831 11.3952C19.4136 11.9245 20 12.9117 20 14.0026C20 15.6035 18.7424 16.9207 17.1505 16.9989L16.9755 17.0029L6.5 17.0026L6.33492 16.9978C5.04102 16.9274 4 15.8321 4 14.5026C4 13.5232 4.56782 12.6471 5.43911 12.2379C5.81877 12.0597 6.04682 11.6634 6.01023 11.2455C6.00343 11.1679 6 11.0866 6 11.0026C6 9.34574 7.34315 8.00259 9 8.00259C9.41971 8.00259 9.82557 8.08825 10.2003 8.25206C10.5649 8.41148 10.9893 8.33952 11.2811 8.06882C12.0155 7.38732 12.9764 7.00259 14 7.00259Z" fill="#1A1C1F"/>
</g>
<defs>
<clipPath id="clip0_185_789">
<rect width="24" height="24" fill="white"/>
</clipPath>
</defs>
</svg>

<svg xmlns="http://www.w3.org/2000/svg" width="24" height="24" fill="none"><g clip-path="url(#a)"><path fill="#1A1C1F" fill-rule="evenodd" d="m10.575 6.076-.174.127-.23-.062A5 5 0 0 0 9 6.003l-.217.004a5 5 0 0 0-4.765 4.564l-.012.186-.153.106a4.5 4.5 0 0 0 2.4 8.133l10.971.001A5.005 5.005 0 0 0 22 14.003l-.006-.236a5 5 0 0 0-1.946-3.728l-.144-.105-.034-.18A6 6 0 0 0 14 5.003c-1.14.053-2.51.435-3.425 1.073M14 7.003a4 4 0 0 1 3.982 3.617 1 1 0 0 0 .501.775A3 3 0 0 1 17.15 17l-.174.004H6.5l-.165-.005C5.04 16.928 4 15.832 4 14.503a2.5 2.5 0 0 1 1.44-2.265 1 1 0 0 0 .57-.992 3 3 0 0 1 4.19-2.993 1 1 0 0 0 1.081-.184A3.98 3.98 0 0 1 14 7.003" clip-rule="evenodd"/></g><defs><clipPath id="a"><path fill="#fff" d="M0 0h24v24H0z"/></clipPath></defs></svg>
